X:4714
T:O'Connor's March (in F)
O:england
M:12/8
L:1/8
K:F
A|B2A B2A B2c d2e|fed gfe fed cAG|F2A c3 dcA cAG|F2A c3 dcA c2A|
B2A B2A B2c d2e|fed gfe fed c3|dgg g2a g2f d2c|A2B ABA G6||
A|BAB G2A BAB GcB|A/B/cA FcB A/B/cA FAc|BAB DGA B2c d2e|fed gfe fed c3|
B/c/dB G2A B/c/dB GcB|A/B/cA FcB A/B/cA FAc|dgg g2a g2f d2c|A2B ABA G3 G2|


